src/Icon/svgs/LikeOutline.svg

<svg width="24" height="24" viewBox="0 0 24 24" fill="none" xmlns="http://www.w3.org/2000/svg">
<path fill-rule="evenodd" clip-rule="evenodd" d="M13.1391 10L13.9834 4.93393C14.1412 3.98723 13.6043 3.06192 12.704 2.72918L12.2851 2.57434L9.68066 9.77897V20H18.481L19.9476 11.1637C20.0487 10.5544 19.5787 10 18.9611 10H13.1391ZM7.68066 9.42857L11.0891 0L13.3974 0.853221C15.1979 1.51871 16.2718 3.36933 15.9562 5.26273L15.5 8H18.9611C20.814 8 22.224 9.6632 21.9206 11.4912L20.3477 20.9677C20.2495 21.5655 19.779 22 19.2299 22H7.68066V9.42857Z" fill="#1B1C1D"/>
<path d="M3.13495 9.42859C2.50292 9.42859 2 9.98884 2 10.6799V20.7487C2 21.4272 2.50813 22 3.13495 22H5.4084V9.42859H3.13495Z" fill="#1B1C1D"/>
</svg>

<svg xmlns="http://www.w3.org/2000/svg" width="24" height="24" fill="#1b1c1d"  xmlns:v="https://vecta.io/nano"><path fill-rule="evenodd" d="M13.139 10l.844-5.066a2 2 0 0 0-1.279-2.205l-.419-.155-2.604 7.205V20h8.8l1.467-8.836A1 1 0 0 0 18.961 10h-5.822zm-5.458-.571L11.089 0l2.308.853a4 4 0 0 1 2.559 4.41L15.5 8h3.461a3 3 0 0 1 2.96 3.491l-1.573 9.477C20.25 21.566 19.779 22 19.23 22H7.681V9.429z"/><path d="M3.135 9.429C2.503 9.429 2 9.989 2 10.68v10.069C2 21.427 2.508 22 3.135 22h2.273V9.429H3.135z"/></svg>
